icons/unlock-16.svg

<svg xmlns="http://www.w3.org/2000/svg" width="16" height="16" viewBox="0 0 16 16">
  <defs/>
  <path d="M5.5,4 L5.5,6 L12.5,6 C13.328,6 14,6.672 14,7.5 L14,13.5 C14,14.328 13.328,15 12.5,15 L3.5,15 C2.672,15 2,14.328 2,13.5 L2,7.5 C2,6.672 2.671,6.001 3.499,6 L4,6 L4,4 C4,2.223 5.172,0.658 6.878,0.16 C8.584,-0.339 10.414,0.348 11.371,1.846 C11.594,2.195 11.492,2.659 11.143,2.882 C10.794,3.105 10.33,3.003 10.107,2.654 C9.509,1.718 8.365,1.288 7.299,1.6 C6.233,1.911 5.5,2.889 5.5,4 Z M3.5,7.5 L3.5,13.5 L12.5,13.5 L12.5,7.5 L3.5,7.5 Z"/>
</svg>

<svg xmlns="http://www.w3.org/2000/svg" width="16" height="16" viewBox="0 0 16 16"><path d="M5.5 4v2h7A1.5 1.5 0 0114 7.5v6a1.5 1.5 0 01-1.5 1.5h-9A1.5 1.5 0 012 13.5v-6A1.5 1.5 0 013.499 6H4V4a4 4 0 017.371-2.154.75.75 0 01-1.264.808A2.5 2.5 0 005.5 4zm-2 3.5v6h9v-6h-9z"/></svg>
